packages/core/src/svgs/mimatic.svg

<svg width="24" height="24" viewBox="0 0 24 24" fill="none" xmlns="http://www.w3.org/2000/svg">
<g clip-path="url(#clip0_31_13866)">
<path d="M0 0H24V24H0V0Z" fill="#FF6B6B"/>
<path d="M9.76302 8.3102C10.6373 8.26734 11.1044 8.37448 11.7816 8.9402C11.9273 9.0602 12.0173 9.2402 12.0473 9.48448C12.0473 9.51448 12.0473 9.54448 12.0387 9.57448C12.0308 9.60322 12.0161 9.62966 11.9959 9.65163C11.9787 9.67144 11.9565 9.68624 11.9316 9.69448C11.9065 9.70238 11.8796 9.70238 11.8544 9.69448C11.1995 9.47011 10.511 9.35993 9.81874 9.36877C9.17588 9.38163 9.06874 8.3402 9.76302 8.3102ZM9.57874 10.1745H9.57016V10.1702C9.56753 10.1693 9.56528 10.1675 9.56373 10.1652C9.56219 10.1629 9.56143 10.1601 9.56159 10.1573C9.57016 10.0245 9.67731 9.9002 9.85731 9.81448C10.0373 9.72877 10.2859 9.68591 10.5344 9.69877H10.573C10.8216 9.71162 11.0616 9.77163 11.233 9.8702C11.4044 9.97305 11.503 10.1059 11.4944 10.2388C11.4956 10.2407 11.4962 10.2429 11.4962 10.2452C11.4962 10.2475 11.4956 10.2497 11.4944 10.2516C11.4925 10.2528 11.4903 10.2533 11.488 10.2533C11.4858 10.2533 11.4835 10.2528 11.4816 10.2516L9.57874 10.1745Z" fill="black"/>
<path fill-rule="evenodd" clip-rule="evenodd" d="M16.4571 13.9413C16.5439 14.1512 16.6849 14.3344 16.8655 14.4722C17.0462 14.6099 17.2602 14.6974 17.4856 14.7255C17.5628 14.6013 17.4728 14.4855 17.4213 14.3698C17.0785 13.5813 16.6713 12.6298 17.0571 11.8027C17.0785 11.7598 17.1042 11.7513 17.1428 11.777C17.3313 11.9055 17.5328 11.9655 17.7428 11.9613C17.8413 11.9613 17.8885 11.8413 17.8199 11.7727C17.4856 11.4568 17.239 11.0596 17.1042 10.6198C17.0228 10.3327 17.0099 9.99411 16.9971 9.64697C16.9713 8.94411 16.9413 8.20697 16.3456 7.81268C15.9856 7.5684 15.7885 7.05411 15.6471 6.65554C14.8028 4.26411 12.3213 3.41983 9.95563 4.06697C7.98421 4.60697 6.26135 7.01554 6.11564 8.98697C6.08992 9.38125 6.74135 9.58268 6.51421 10.0198C6.47135 10.1141 6.41992 10.2041 6.37278 10.2898C6.14992 10.697 5.96992 11.0355 6.00421 11.6313C6.10706 12.2141 6.47564 12.7241 6.53564 13.307C6.56992 13.6541 6.55706 14.0184 6.50135 14.3998C6.22706 16.277 7.15278 18.4713 8.33564 19.8855C8.42135 19.9884 8.46421 19.9713 8.46421 19.8427L8.47278 19.2127C8.43849 19.0241 8.45135 18.857 8.51564 18.707C8.53278 18.6684 8.55421 18.6684 8.57563 18.707C8.80873 19.1476 9.16648 19.5098 9.60421 19.7484C10.6003 20.1969 11.7247 20.2715 12.7713 19.9584C12.8142 19.9155 12.8142 19.8855 12.7799 19.8641C12.4303 19.6549 12.1513 19.3459 11.9785 18.977L11.8413 18.6513C11.8285 18.6127 11.8413 18.5998 11.8799 18.6084L12.0513 18.6641C12.5013 18.797 12.9642 18.9384 13.4056 18.7284C12.9667 18.2328 12.6315 17.6543 12.4199 17.027C12.357 16.7943 12.3534 16.5496 12.4096 16.3153C12.4657 16.0809 12.5798 15.8644 12.7413 15.6855C12.9685 15.4113 13.6499 14.2455 13.9928 14.2241C14.1299 14.2155 14.2242 14.2884 14.2799 14.4427C14.7085 15.7113 15.4371 17.0355 16.5085 17.8713C16.9671 18.1584 17.6999 18.317 17.9442 17.657C18.1199 17.1813 17.8456 16.6841 17.5628 16.2984C17.5542 16.2875 17.5427 16.2793 17.5296 16.2747C17.5166 16.2701 17.5024 16.2693 17.4889 16.2725C17.4754 16.2756 17.4631 16.2826 17.4534 16.2925C17.4437 16.3024 17.4371 16.3148 17.4342 16.3284C17.3956 16.5684 17.1813 17.177 16.8685 17.1855C15.9685 17.2027 16.3071 14.4984 16.3928 13.9498C16.4056 13.8641 16.4271 13.8641 16.4613 13.9413H16.4571ZM14.8071 7.68411C15.0085 5.11268 12.3899 4.25554 10.2942 4.75268C9.89135 4.84697 9.46706 5.05268 9.01706 5.3784C8.94421 5.42983 8.85849 5.54983 8.76849 5.74697C8.74706 5.78554 8.75992 5.81125 8.79849 5.82411C8.84135 5.83697 8.88421 5.83697 8.93563 5.81983L9.43278 5.8284C9.47563 5.8284 9.49706 5.84983 9.50563 5.89268C9.50992 5.92697 9.49706 5.96983 9.45849 6.02125C9.24421 6.13697 8.99563 6.19268 8.70849 6.19268C8.59706 6.1884 8.39135 6.3984 8.54992 6.46697C8.56063 6.47218 8.57231 6.4751 8.58421 6.47554H9.38992L10.2171 6.48411C10.2642 6.48411 10.2856 6.50983 10.2728 6.55697C10.2642 6.59983 10.2299 6.65125 10.1871 6.71125C9.80135 6.8484 9.31706 6.91268 8.72992 6.90411C8.61849 6.90411 8.54135 6.9684 8.50278 7.10554C8.59278 7.2084 8.79849 7.25125 9.11135 7.2384C9.71822 7.21384 10.3242 7.17096 10.9285 7.10983C11.0142 7.10554 11.3142 7.07983 11.3142 7.22125C11.3142 7.26411 11.2971 7.31983 11.2713 7.39268C11.2885 7.40554 11.2971 7.42268 11.3056 7.43554C11.3699 7.52983 11.3142 7.61983 11.1342 7.70125C10.5213 7.97554 9.52706 7.97554 8.86278 7.91554C8.63563 7.8984 8.54135 8.12125 8.40849 8.28411C8.32278 9.22697 8.42992 10.0113 7.97992 10.907C7.82135 11.2155 7.78706 11.507 7.80849 11.8627C7.82992 12.1284 8.02278 12.2141 8.26706 12.1927C8.66135 12.1627 9.08992 12.1541 9.55278 12.167C9.59135 12.167 9.64706 12.1284 9.71992 12.047C9.54849 11.9441 9.37278 11.8627 9.17992 11.8027C9.01278 11.7513 8.93135 11.6227 9.05135 11.4598C8.99992 11.3913 9.00421 11.2755 9.10278 11.2584C9.72421 11.147 10.2299 11.3013 10.6199 11.7255C10.9585 12.0941 11.1771 12.5613 11.2842 13.1184C11.3699 13.577 11.4856 14.0141 11.6056 14.4513C11.6613 14.6441 11.7428 15.137 12.0642 14.9355C12.8485 14.447 13.4699 13.517 13.7699 12.6384C13.9242 12.1884 14.0442 11.7855 14.1299 11.4384C14.2928 10.7698 13.4185 10.517 13.4742 9.95983C13.5085 9.57411 13.5771 9.18411 13.6842 8.79411C13.8256 8.26268 14.3356 7.90268 14.8071 7.6884V7.68411ZM10.6071 14.3098C10.5117 14.4598 10.3707 14.5753 10.2049 14.6393C10.0391 14.7034 9.85707 14.7125 9.68563 14.6655C9.58706 14.6441 9.47135 14.5327 9.34278 14.3313C9.24421 14.177 9.13706 13.8298 8.92278 13.7955C8.79421 13.7741 8.66563 13.787 8.53706 13.8298C8.21992 13.9413 8.38278 14.5284 7.94564 14.5884C7.80421 14.6098 7.73564 14.3741 7.73135 14.267C7.66293 13.987 7.69794 13.6917 7.82992 13.4355C7.85135 13.3927 7.88135 13.3627 7.92421 13.3455C8.47706 13.097 9.25278 13.1313 9.89563 13.1827C10.0328 13.1913 10.1442 13.2427 10.2385 13.3327C10.5171 13.6155 10.6413 13.9455 10.6071 14.3098Z" fill="black"/>
</g>
<defs>
<clipPath id="clip0_31_13866">
<rect width="24" height="24" fill="white"/>
</clipPath>
</defs>
</svg>

<svg xmlns="http://www.w3.org/2000/svg" width="24" height="24" fill="none" viewBox="0 0 24 24"><g clip-path="url(#a)"><path fill="#FF6B6B" d="M0 0h24v24H0z"/><path fill="#000" d="M9.763 8.31c.874-.043 1.341.064 2.019.63q.219.179.265.544.002.045-.008.09a.2.2 0 0 1-.043.078.15.15 0 0 1-.064.042.13.13 0 0 1-.078 0A6 6 0 0 0 9.82 9.37c-.643.013-.75-1.029-.056-1.059m-.184 1.864H9.57v-.004a.013.013 0 0 1-.008-.013c.008-.133.115-.257.295-.343.18-.085.429-.128.677-.115h.039c.249.013.489.073.66.171.171.103.27.236.261.369l.002.006q0 .004-.002.007l-.006.001-.006-.001z"/><path fill="#000" fill-rule="evenodd" d="M16.457 13.941a1.29 1.29 0 0 0 1.029.784c.077-.124-.013-.24-.065-.355-.343-.789-.75-1.74-.364-2.567.021-.043.047-.052.086-.026q.284.192.6.184c.098 0 .146-.12.077-.188a2.66 2.66 0 0 1-.716-1.153c-.081-.287-.094-.626-.107-.973-.026-.703-.056-1.44-.651-1.834-.36-.245-.557-.759-.699-1.157-.844-2.392-3.326-3.236-5.691-2.589-1.972.54-3.695 2.949-3.84 4.92-.026.394.625.596.398 1.033-.043.094-.094.184-.141.27-.223.407-.403.746-.369 1.341.103.583.472 1.093.532 1.676q.05.52-.035 1.093c-.274 1.877.652 4.071 1.835 5.486.085.102.128.085.128-.043l.009-.63a.86.86 0 0 1 .043-.506q.026-.059.06 0c.233.44.59.803 1.028 1.041.996.449 2.12.523 3.167.21.043-.042.043-.072.009-.094a2.04 2.04 0 0 1-.801-.887l-.138-.326q-.019-.056.039-.043l.171.056c.45.133.913.274 1.355.064a5 5 0 0 1-.986-1.701 1.44 1.44 0 0 1 .321-1.342c.228-.274.909-1.44 1.252-1.46q.204-.015.287.218c.429 1.268 1.157 2.592 2.229 3.428.458.287 1.19.446 1.435-.214.176-.476-.098-.973-.381-1.359a.073.073 0 0 0-.129.03c-.038.24-.253.849-.566.858-.9.017-.56-2.688-.475-3.236.013-.086.034-.086.068-.009zm-1.65-6.257c.201-2.571-2.417-3.428-4.513-2.931q-.603.14-1.277.625c-.073.052-.159.172-.249.369q-.028.058.03.077a.2.2 0 0 0 .138-.004l.497.008c.043 0 .064.022.073.065.004.034-.009.077-.048.128a1.55 1.55 0 0 1-.75.172c-.11-.005-.317.205-.158.274q.016.008.034.009h.806l.827.008c.047 0 .069.026.056.073a.5.5 0 0 1-.086.154q-.578.206-1.457.193c-.112 0-.189.064-.227.202q.137.152.608.132a30 30 0 0 0 1.817-.128c.086-.004.386-.03.386.111a.6.6 0 0 1-.043.172c.018.013.026.03.035.043q.097.142-.172.265c-.613.275-1.607.275-2.271.215-.227-.018-.322.205-.455.368-.085.943.022 1.727-.428 2.623-.159.309-.193.6-.172.956.022.265.215.351.46.33q.59-.045 1.285-.026.057 0 .167-.12a2.5 2.5 0 0 0-.54-.244c-.167-.052-.249-.18-.129-.343-.051-.069-.047-.185.052-.202q.932-.168 1.517.468c.339.368.557.835.664 1.392.086.459.202.896.322 1.333.055.193.137.686.458.484.784-.488 1.406-1.418 1.706-2.297q.231-.677.36-1.2c.163-.668-.712-.921-.656-1.478a6.6 6.6 0 0 1 .21-1.166c.142-.531.652-.891 1.123-1.106zm-4.2 6.626a.83.83 0 0 1-.921.355q-.15-.03-.343-.334c-.099-.154-.206-.501-.42-.535a.8.8 0 0 0-.386.034c-.317.111-.154.698-.591.758-.142.022-.21-.214-.215-.321a1.2 1.2 0 0 1 .099-.832.18.18 0 0 1 .094-.09c.553-.248 1.329-.214 1.972-.162.137.008.248.06.342.15.28.283.403.612.37.977" clip-rule="evenodd"/></g><defs><clipPath id="a"><path fill="#fff" d="M0 0h24v24H0z"/></clipPath></defs></svg>
